icons/outline/adjustments-plus.svg

<!--
category: System
tags: [settings, add, increase, expand, enlarge, inflate, grow, gain, boost, more]
version: "2.10"
unicode: "f807"
-->
<svg
  xmlns="http://www.w3.org/2000/svg"
  width="24"
  height="24"
  viewBox="0 0 24 24"
  fill="none"
  stroke="currentColor"
  stroke-width="2"
  stroke-linecap="round"
  stroke-linejoin="round"
>
  <path d="M4 10a2 2 0 1 0 4 0a2 2 0 0 0 -4 0m2 -6v4m0 4v8m7.958 -4.408a2 2 0 1 0 -1.958 2.408m0 -14v10m0 4v2m4 -13a2 2 0 1 0 4 0a2 2 0 0 0 -4 0m2 -3v1m0 4v3m-2 7h6m-3 -3v6" />
</svg>

<!--
category: System
tags: [settings, add, increase, expand, enlarge, inflate, grow, gain, boost, more]
version: "2.10"
unicode: "f807"
-->
<svg
  xmlns="http://www.w3.org/2000/svg"
  width="24"
  height="24"
  viewBox="0 0 24 24"
  fill="none"
  stroke="currentColor"
  stroke-width="2"
  stroke-linecap="round"
  stroke-linejoin="round"
>
    <path d="M4 10a2 2 0 1 0 4 0a2 2 0 0 0 -4 0M6 4v4M6 12v8M13.958 15.592a2 2 0 1 0 -1.958 2.408M12 4v10M12 18v2M16 7a2 2 0 1 0 4 0a2 2 0 0 0 -4 0M18 4v1M18 9v3M16 19h6M19 16v6" />
</svg>
